src/assets/images/ln.svg

<svg fill="none" height="24" viewBox="0 0 24 24" width="24" xmlns="http://www.w3.org/2000/svg" xmlns:xlink="http://www.w3.org/1999/xlink"><clipPath id="a"><rect height="20" rx="10" width="20" x="2" y="2"/></clipPath><circle cx="12" cy="12" fill="#fff" r="12"/><circle cx="12" cy="12" fill="#171717" r="10"/><g clip-path="url(#a)"><path d="m17.8333 2h-11.66663c-2.30084 0-4.16667 1.86583-4.16667 4.16667v11.66663c0 2.3009 1.86583 4.1667 4.16667 4.1667h11.66663c2.3017 0 4.1667-1.8658 4.1667-4.1667v-11.66663c0-2.30084-1.865-4.16667-4.1667-4.16667zm-9.16663 15.8333h-2.5v-9.16663h2.5zm-1.25-10.2233c-.805 0-1.45834-.65833-1.45834-1.47s.65334-1.47 1.45834-1.47 1.45833.65833 1.45833 1.47-.6525 1.47-1.45833 1.47zm11.25003 10.2233h-2.5v-4.67c0-2.8066-3.3334-2.5941-3.3334 0v4.67h-2.5v-9.16663h2.5v1.47083c1.1634-2.155 5.8334-2.31417 5.8334 2.0633z" fill="#fff"/></g></svg>

<svg width="24" height="24" viewBox="0 0 24 24" fill="none" xmlns="http://www.w3.org/2000/svg">
<circle cx="12" cy="12" r="12" fill="white"/>
<circle cx="12" cy="12" r="10" fill="#171717"/>
<g clip-path="url(#clip0_101_826)">
<path d="M17.8333 2H6.16667C3.86583 2 2 3.86583 2 6.16667V17.8333C2 20.1342 3.86583 22 6.16667 22H17.8333C20.135 22 22 20.1342 22 17.8333V6.16667C22 3.86583 20.135 2 17.8333 2ZM8.66667 17.8333H6.16667V8.66667H8.66667V17.8333ZM7.41667 7.61C6.61167 7.61 5.95833 6.95167 5.95833 6.14C5.95833 5.32833 6.61167 4.67 7.41667 4.67C8.22167 4.67 8.875 5.32833 8.875 6.14C8.875 6.95167 8.2225 7.61 7.41667 7.61ZM18.6667 17.8333H16.1667V13.1633C16.1667 10.3567 12.8333 10.5692 12.8333 13.1633V17.8333H10.3333V8.66667H12.8333V10.1375C13.9967 7.9825 18.6667 7.82333 18.6667 12.2008V17.8333Z" fill="white"/>
</g>
<defs>
<clipPath id="clip0_101_826">
<rect x="2" y="2" width="20" height="20" rx="10" fill="white"/>
</clipPath>
</defs>
</svg>
